X: 13
T: Merry Coblers
%R: reel
B: "Twenty Four Country Dances for the Year 1780", Thomas Skillern, ed. p.7 #1
F: http://www.vwml.org/browse/browse-collections-dance-tune-books/browse-skillerns1780#
Z: 2014 John Chambers <jc:trillian.mit.edu>
M: C|
L: 1/8
K: D
A |\
FD F/G/A d2df | d2fd eEEA |\
FD F/G/A d2dg | faef dDD ::g |\
fdef aeef |
fdgf eEEg |\
[1 fdfg aeeg | fdec dDD :|\
[2 fdge afge | fdec dDD |]
%%begintext align
%%   Hands across quite round .|. Back again :|.
%% Lead down two Cu .|: up again Cast off :|: set 3
%% and 3 top and Bottom .||. the same sideways :||.
%% hands Six Round .||: Lead thro' the top and
%% Cast off :||:
%%endtext

%%sep 1 1 500
%%sep 1 1 500
